images/event-no-logo.svg

<svg width="40" height="40" viewBox="0 0 40 40" xmlns="http://www.w3.org/2000/svg">
	<rect width="40" height="40" fill="#D9D9D9"/>
	<path d="M20.4583 24.9167C23.1239 24.9167 25.2917 22.7477 25.2917 20.0833V12.8333C25.2917 10.1677 23.1239 8 20.4583 8C17.7927 8 15.625 10.1677 15.625 12.8333V20.0833C15.625 22.7477 17.7927 24.9167 20.4583 24.9167Z" fill="#242424"/>
	<path d="M28.9167 20.0833V17.6667C28.9167 16.9997 28.3765 16.4583 27.7083 16.4583C27.0401 16.4583 26.5 16.9997 26.5 17.6667V20.0833C26.5 23.4147 23.7897 26.125 20.4583 26.125C17.127 26.125 14.4167 23.4147 14.4167 20.0833V17.6667C14.4167 16.9997 13.8765 16.4583 13.2083 16.4583C12.5401 16.4583 12 16.9997 12 17.6667V20.0833C12 24.3367 15.1574 27.8553 19.25 28.445V29.75H15.625C14.9568 29.75 14.4167 30.2901 14.4167 30.9583C14.4167 31.6266 14.9568 32.1667 15.625 32.1667H25.2917C25.9599 32.1667 26.5 31.6266 26.5 30.9583C26.5 30.2901 25.9599 29.75 25.2917 29.75H21.6667V28.445C25.7593 27.8553 28.9167 24.3367 28.9167 20.0833Z" fill="#242424"/>
</svg>

<svg width="40" height="40" xmlns="http://www.w3.org/2000/svg"><path fill="#D9D9D9" d="M0 0h40v40H0z"/><path d="M20.458 24.917a4.84 4.84 0 004.834-4.834v-7.25A4.838 4.838 0 0020.458 8a4.838 4.838 0 00-4.833 4.833v7.25a4.839 4.839 0 004.833 4.834z" fill="#242424"/><path d="M28.917 20.083v-2.416a1.208 1.208 0 10-2.417 0v2.416a6.049 6.049 0 01-6.042 6.042 6.049 6.049 0 01-6.041-6.042v-2.416a1.208 1.208 0 10-2.417 0v2.416c0 4.254 3.157 7.772 7.25 8.362v1.305h-3.625a1.207 1.207 0 100 2.417h9.667a1.207 1.207 0 100-2.417h-3.625v-1.305c4.092-.59 7.25-4.108 7.25-8.362z" fill="#242424"/></svg>
